X:924
T:Miss Ramsey's
R:reel
H:See also #445, strathspey#16
H:First two parts often played twice around before going into third part
Z:id:hn-reel-924
M:C|
K:D
|: D3B AF~F2 | AFBF AFEF | D2DB ADFA |1 (3Bcd AF EDCE :|2 (3Bcd AF Ea^ga ||
|: fddf eAce | dcdA Bcde |1 fddf eAce | dBAG FDD2 :|
[2 (3fga ec dcBA | (3Bcd AF Egfe ||
|: dcdf adfa | gbaf gfef | dcdf adfa |1 gbaf egfe :|2 gbaf ea^ga ||
|: fddf eAce | dcdA Bcde |1 fddf eAce | dBAG FDD2 :|
[2 (3fga ec dcBA | (3Bcd AF EDCE ||

